X:1
T:Canning Salmon
M:3/4
L:1/4
K:C
 G,| E F G| F E D| _D =D E| D C B,| A, B, C| B,/2C/2 C C| B, C E| D3-|\
 D2 G,/2 G,/2| E F G| F/2E/2 E D| C D E| D C B,| A, B, C| B, C B,|\
 B,/2- C3/2 E| D3|
M:6/8
 E/2G/2F/2 E3/2| C/2E/2D/2 C3/2| A,/2D/2C/2 B,- A,/2| B,/2D/2B,/2 G,3/2|\
